src/assets/svg/icons/fa/nuevos/classic/duotone/square-list classic duotone.svg

<svg xmlns="http://www.w3.org/2000/svg" viewBox="0 0 448 512"><!--! Font Awesome Pro 6.4.0 by @fontawesome - https://fontawesome.com License - https://fontawesome.com/license (Commercial License) Copyright 2023 Fonticons, Inc. --><defs><style>.fa-secondary{opacity:.4}</style></defs><path class="fa-primary" d="M168 160c0-13.3 10.7-24 24-24H352c13.3 0 24 10.7 24 24s-10.7 24-24 24H192c-13.3 0-24-10.7-24-24zm0 192c0-13.3 10.7-24 24-24H352c13.3 0 24 10.7 24 24s-10.7 24-24 24H192c-13.3 0-24-10.7-24-24zm24-120H352c13.3 0 24 10.7 24 24s-10.7 24-24 24H192c-13.3 0-24-10.7-24-24s10.7-24 24-24z"/><path class="fa-secondary" d="M0 96C0 60.7 28.7 32 64 32H384c35.3 0 64 28.7 64 64V416c0 35.3-28.7 64-64 64H64c-35.3 0-64-28.7-64-64V96zM96 288a32 32 0 1 0 0-64 32 32 0 1 0 0 64zm32-128a32 32 0 1 0 -64 0 32 32 0 1 0 64 0zM96 384a32 32 0 1 0 0-64 32 32 0 1 0 0 64zm96-248c-13.3 0-24 10.7-24 24s10.7 24 24 24H352c13.3 0 24-10.7 24-24s-10.7-24-24-24H192zM168 352c0 13.3 10.7 24 24 24H352c13.3 0 24-10.7 24-24s-10.7-24-24-24H192c-13.3 0-24 10.7-24 24zm24-120c-13.3 0-24 10.7-24 24s10.7 24 24 24H352c13.3 0 24-10.7 24-24s-10.7-24-24-24H192z"/></svg>

<svg xmlns="http://www.w3.org/2000/svg" viewBox="0 0 448 512"><defs><style>.fa-secondary{opacity:.4}</style></defs><path class="fa-primary" d="M168 160C168 146.7 178.7 136 192 136H352C365.3 136 376 146.7 376 160C376 173.3 365.3 184 352 184H192C178.7 184 168 173.3 168 160zM168 352C168 338.7 178.7 328 192 328H352C365.3 328 376 338.7 376 352C376 365.3 365.3 376 352 376H192C178.7 376 168 365.3 168 352zM352 232C365.3 232 376 242.7 376 256C376 269.3 365.3 280 352 280H192C178.7 280 168 269.3 168 256C168 242.7 178.7 232 192 232H352z"/><path class="fa-secondary" d="M0 96C0 60.65 28.65 32 64 32H384C419.3 32 448 60.65 448 96V416C448 451.3 419.3 480 384 480H64C28.65 480 0 451.3 0 416V96zM128 256C128 238.3 113.7 224 96 224C78.33 224 64 238.3 64 256C64 273.7 78.33 288 96 288C113.7 288 128 273.7 128 256zM128 160C128 142.3 113.7 128 96 128C78.33 128 64 142.3 64 160C64 177.7 78.33 192 96 192C113.7 192 128 177.7 128 160zM128 352C128 334.3 113.7 320 96 320C78.33 320 64 334.3 64 352C64 369.7 78.33 384 96 384C113.7 384 128 369.7 128 352zM192 136C178.7 136 168 146.7 168 160C168 173.3 178.7 184 192 184H352C365.3 184 376 173.3 376 160C376 146.7 365.3 136 352 136H192zM192 376H352C365.3 376 376 365.3 376 352C376 338.7 365.3 328 352 328H192C178.7 328 168 338.7 168 352C168 365.3 178.7 376 192 376zM192 232C178.7 232 168 242.7 168 256C168 269.3 178.7 280 192 280H352C365.3 280 376 269.3 376 256C376 242.7 365.3 232 352 232H192z"/></svg>
